X: 21313
T: Kenmare Golf Disaster, The
R: polka
M: 2/4
K: Dmajor
|:fb af|dB Bc/B/|AB d/c/d/e/|fe ed/e/|
fb af|dB Bc/B/|AB de|1 fd d>e:|2 fd d2||
|:EF/E/ DE|FA AB/c/|dB AF|BE E2|
[1 EF/E/ DE|FA AB/c/|dB AG|FD D2:|
[2 fb af|dB Bc/B/|AB d/c/d/e/|fd d>e||

